icons/icn_comparator.svg

<svg width="24" xmlns="http://www.w3.org/2000/svg" height="24" id="screenshot-915d2400-ada3-801c-8006-87dc854f6d64" viewBox="0 0 24 24" xmlns:xlink="http://www.w3.org/1999/xlink" fill="none" version="1.1"><g id="shape-915d2400-ada3-801c-8006-87dc854f6d64"><g class="frame-container-wrapper"><g class="frame-container-blur"><g class="frame-container-shadows"><g fill="none"><g class="fills" id="fills-915d2400-ada3-801c-8006-87dc854f6d64"><rect rx="0" ry="0" x="0" y="0" width="24" height="24.000000000000455" transform="matrix(1, 0, 0, 1, 0, 0)" class="frame-background"/></g><g class="frame-children"><g id="shape-915d2400-ada3-801c-8006-87dc7d4c8fad" width="24" height="24" version="1.1" rx="0" ry="0" style="fill: rgb(0, 0, 0);"><g id="shape-915d2400-ada3-801c-8006-87dc7d4fff00" style="opacity: 1;"><g class="fills" id="fills-915d2400-ada3-801c-8006-87dc7d4fff00"><path d="M5.880705833435059,1.9740145206451416C4.295500755310059,1.9740145206451416,3.0017995834350586,3.2666170597076416,3.0017995834350586,4.8527984619140625L3.0017995834350586,15.143081665039062C3.0017995834350586,16.728652954101562,4.295500755310059,18.021865844726562,5.880705833435059,18.021865844726562L11.157805442810059,18.021865844726562L11.157805442810059,20.000137329101562L11.157805442810059,20.634780883789062L8.523283958435059,20.634780883789062C8.293547630310059,20.633926391601562,8.072112083435059,20.723892211914062,7.908782005310059,20.885757446289062C7.745451927185059,21.047744750976562,7.653166770935059,21.268325805664062,7.652434349060059,21.498062133789062C7.651457786560059,21.729629516601562,7.742766380310059,21.951553344726562,7.906096458435059,22.115371704101562C8.069426536560059,22.279190063476562,8.291838645935059,22.370498657226562,8.523283958435059,22.369155883789062L15.521330833435059,22.369155883789062C15.751311302185059,22.368179321289062,15.971770286560059,22.275894165039062,16.133146286010742,22.112564086914062C16.295499801635742,21.949234008789062,16.386075973510742,21.728286743164062,16.385099411010742,21.498062133789062C16.383390426635742,21.022354125976562,15.997649192810059,20.636611938476562,15.521330833435059,20.634780883789062L12.884367942810059,20.634780883789062L12.884367942810059,20.000137329101562L12.884367942810059,18.021865844726562L18.164152145385742,18.021865844726562C19.749357223510742,18.021865844726562,21.043058395385742,16.728652954101562,21.043058395385742,15.143081665039062L21.043058395385742,4.8527984619140625C21.043058395385742,3.2666170597076416,19.749357223510742,1.9740145206451416,18.164152145385742,1.9740145206451416ZM5.880705833435059,3.2745516300201416L11.157805442810059,3.2745516300201416L11.157805442810059,4.0048980712890625L11.157805442810059,15.068740844726562L4.986662864685059,15.068740844726562L4.300871849060059,15.068740844726562L4.300871849060059,4.8527984619140625C4.300871849060059,3.9647371768951416,4.993010520935059,3.2745516300201416,5.880705833435059,3.2745516300201416ZM12.884367942810059,3.2745516300201416L18.164152145385742,3.2745516300201416C19.051847457885742,3.2745516300201416,19.743986129760742,3.9647371768951416,19.743986129760742,4.8527984619140625L19.743986129760742,15.068740844726562L19.072111129760742,15.068740844726562L12.884367942810059,15.068740844726562L12.884367942810059,4.0048980712890625Z" style="display: inline; stroke-linecap: round; stroke-linejoin: round; fill: rgb(0, 0, 0); fill-opacity: 1;"/></g></g></g></g></g></g></g></g></g></svg>

<svg fill="none" viewBox="0 0 24 24"><g class="frame-container-wrapper"><g class="frame-container-blur"><g class="frame-container-shadows"><g class="fills"><rect width="24" height="24" class="frame-background" rx="0" ry="0"/></g><g class="frame-children"><path fill="#000" d="M5.8807 1.974c-1.5852 0-2.8789 1.2926-2.8789 2.8788v10.2903c0 1.5856 1.2937 2.8788 2.879 2.8788h5.277v2.6129H8.5233a.8686.8686 0 0 0-.6145.251.8687.8687 0 0 0-.0027 1.2296.8644.8644 0 0 0 .6172.2538h6.998a.8655.8655 0 0 0 .6118-.2566.8661.8661 0 0 0 .252-.6145c-.0017-.4757-.3875-.8615-.8638-.8633h-2.637v-2.6129h5.2799c1.5852 0 2.8789-1.2932 2.8789-2.8788V4.8528c0-1.5862-1.2937-2.8788-2.879-2.8788Zm0 1.3006h5.2771v11.7941H4.301V4.8528c0-.888.6921-1.5782 1.5798-1.5782Zm7.0037 0h5.2798c.8876 0 1.5798.6901 1.5798 1.5782v10.216h-6.8596V4.0048Z" class="fills"/></g></g></g></g></svg>
